X:7967
T:Jig na Mire
T:The Mad Jig
M:6/8
L:1/8
C:John Mosey McGinley
S:James Byrne
R:Jig
N:Named by Mickey Golly
D:The Road to Glenlough
Z:Nice to drone D string in the A section.
K:G
|:B,CD B,CD|B,CD ECE|B,CD B,CD| BAG ECE|
B,CD B,CD|B,CD ECE|B,CD B,CD| BAG EDC:|:
Ddd AFD|DBc ECE|Ddd B2B|GFG ECE|Ddd AFD|
DBc ECE|Ddd B2B|GFG ECE:|:Daa afd|efg ge^c|daa afd|
gfg efg|agf gfe|fed e/2 f/2 e/2 d/2 ^c| ^cec BdB|ABA GEC:|
